icons/svg/pin-list_12.svg

<?xml version="1.0" encoding="UTF-8"?>
<svg width="12px" height="12px" viewBox="0 0 12 12" version="1.1" xmlns="http://www.w3.org/2000/svg" xmlns:xlink="http://www.w3.org/1999/xlink">
    <!-- Generator: Sketch 59.1 (86144) - https://sketch.com -->
    <title>pin-list_12</title>
    <desc>Created with Sketch.</desc>
    <g id="Icons-Webex" stroke="none" stroke-width="1" fill="none" fill-rule="evenodd">
        <g id="meetings/pin-list_12" fill="#171B1F">
            <path d="M7.136,0.14625 C7.331,-0.04875 7.647,-0.04875 7.843,0.14625 L7.843,0.14625 L11.848,4.15225 C12.044,4.34825 12.044,4.66425 11.848,4.85925 C11.751,4.95725 11.623,5.00625 11.495,5.00625 C11.367,5.00625 11.239,4.95725 11.141,4.85925 L11.141,4.85925 L7.882,1.60025 L5.053,4.42925 C4.932,4.54925 4.757,4.60025 4.589,4.56325 C4.567,4.55825 2.459,4.10325 1.074,5.39625 L1.074,5.39625 L6.534,11.03625 C6.726,11.23425 6.721,11.55125 6.523,11.74325 C6.426,11.83725 6.301,11.88425 6.175,11.88425 C6.044,11.88425 5.914,11.83325 5.816,11.73125 L5.816,11.73125 L3.414,9.25025 L0.854,11.81025 C0.756,11.90825 0.628,11.95725 0.5,11.95725 C0.372,11.95725 0.244,11.90825 0.147,11.81025 C-0.049,11.61525 -0.049,11.29825 0.147,11.10325 L0.147,11.10325 L2.718,8.53225 L0.273,6.00625 C-0.062,5.67125 -0.056,5.10925 0.293,4.76125 C1.754,3.30025 3.786,3.43025 4.531,3.53825 L4.531,3.53825 L7.175,0.89325 L7.136,0.85425 C6.94,0.65825 6.94,0.34225 7.136,0.14625 Z M11.4891,9.48805 C11.7651,9.48805 11.9891,9.71205 11.9891,9.98805 C11.9891,10.26405 11.7651,10.48805 11.4891,10.48805 L11.4891,10.48805 L6.9891,10.48805 C6.7131,10.48805 6.4891,10.26405 6.4891,9.98805 C6.4891,9.71205 6.7131,9.48805 6.9891,9.48805 L6.9891,9.48805 Z M11.4891,7.48805 C11.7651,7.48805 11.9891,7.71205 11.9891,7.98805 C11.9891,8.26405 11.7651,8.48805 11.4891,8.48805 L11.4891,8.48805 L6.9891,8.48805 C6.7131,8.48805 6.4891,8.26405 6.4891,7.98805 C6.4891,7.71205 6.7131,7.48805 6.9891,7.48805 L6.9891,7.48805 Z M11.4891,5.48805 C11.7651,5.48805 11.9891,5.71205 11.9891,5.98805 C11.9891,6.26405 11.7651,6.48805 11.4891,6.48805 L11.4891,6.48805 L6.9891,6.48805 C6.7131,6.48805 6.4891,6.26405 6.4891,5.98805 C6.4891,5.71205 6.7131,5.48805 6.9891,5.48805 L6.9891,5.48805 Z" id="fill"></path>
        </g>
    </g>
</svg>

<svg width="12" height="12" xmlns="http://www.w3.org/2000/svg"><path d="M7.136.146a.5.5 0 01.707 0l4.005 4.006a.499.499 0 01-.353.854.5.5 0 01-.354-.147L7.882 1.6 5.053 4.43a.505.505 0 01-.464.133c-.022-.005-2.13-.46-3.515.833l5.46 5.64a.5.5 0 01-.718.695l-2.402-2.48-2.56 2.56a.5.5 0 11-.707-.708l2.571-2.57L.273 6.005c-.335-.335-.329-.897.02-1.245 1.461-1.46 3.493-1.33 4.238-1.223L7.175.893 7.136.854a.5.5 0 010-.708zm4.353 9.342a.5.5 0 010 1h-4.5a.5.5 0 010-1zm0-2a.5.5 0 010 1h-4.5a.5.5 0 010-1zm0-2a.5.5 0 010 1h-4.5a.5.5 0 010-1z" fill="#171B1F" fill-rule="evenodd"/></svg>
